X: 17836
T: Hopscotch, The
R: polka
M: 2/4
K: Gmajor
|:AB cd|ef ge|ag/f/ ed|Be dB|
AB cd|ef ge|ag/f/ ed|BG A2:|
|:ag ef/g/|ag ed|Ae Ae|dB g2|
ag ef/g/|ag ed|Be dB|AB A2:|
|:AB Ae|Ae dg|ag/f/ ed|Be dB|
AB Ae|Ae dg|ag/f/ ed|BG A2:|

